X:867
T:Brudmarsch
T:efter Pelle Fors
O:Vikbolandet, Östergötland
S:efter Pelle Fors
B:Låtar efter Pelle Fors
R:Marsch
Z:Björn Ek 2008-12-31
M:2/4
L:1/8
K:G
%
D|:B2 (B>c)|B2 A2    |GB d>c|cB B2  |
B2 (B>c)   |B2 A2    |AG B>G|GD D2  |
B2 (B>c)   |B2 A2    |GB d>c|(cB) B2|
GB dg      |(bg) (dB)|e>c AF|1G3 D :|2G3 (B/d/)||
%
|:gd BG|(DG) Bd |(e>c) AF|(AG) Bd    |
gd BG  |DG Bd   |e>c AF  |1G3 (B/d/):|2G3||
%
(:musicend:)

(:music:)
